assets/svg/currencies/equities/NIKKEI.svg

<svg width="300" height="300" viewBox="0 0 300 300" fill="none" xmlns="http://www.w3.org/2000/svg">
<path d="M150 300C232.843 300 300 232.843 300 150C300 67.1573 232.843 0 150 0C67.1573 0 0 67.1573 0 150C0 232.843 67.1573 300 150 300Z" fill="#FFA14A"/>
<path d="M33 177L33 123H43.4161L66.163 157.02V123L77.4981 123L77.4981 177H67.0055L44.2586 142.98L44.2586 177H33Z" fill="white"/>
<path d="M86.6272 123H98.1155L98.1155 177H86.6272L86.6272 123Z" fill="white"/>
<path d="M107.195 123.077H118.684V147.3L140.129 123.077H154.068L134.385 145.294L155.37 177H141.584L126.266 154.243L118.684 162.806V177H107.195L107.195 123.077Z" fill="white"/>
<path d="M159.476 123.077H170.965V147.3L192.41 123.077H206.349L186.665 145.294L207.651 177H193.865L178.547 154.243L170.965 162.806V177H159.476V123.077Z" fill="white"/>
<path d="M211.757 123H247.754V132.951L223.246 132.951V145.063L243.159 145.063V154.551L223.246 154.551V167.049L248.597 167.049V177L211.757 177V123Z" fill="white"/>
<path d="M255.512 123H267V177H255.512V123Z" fill="white"/>
</svg>

<svg viewBox="0 0 300 300" fill="none" xmlns="http://www.w3.org/2000/svg">
    <path d="M150 300c82.843 0 150-67.157 150-150S232.843 0 150 0 0 67.157 0 150s67.157 150 150 150z" fill="#FFA14A"/>
    <path d="M33 177v-54h10.416l22.747 34.02V123h11.335v54H67.005L44.26 142.98V177H33zm53.627-54h11.489v54h-11.49v-54zm20.568.077h11.489V147.3l21.445-24.223h13.939l-19.683 22.217L155.37 177h-13.786l-15.318-22.757-7.582 8.563V177h-11.489v-53.923zm52.281 0h11.489V147.3l21.445-24.223h13.939l-19.684 22.217L207.651 177h-13.786l-15.318-22.757-7.582 8.563V177h-11.489v-53.923zm52.281-.077h35.997v9.951h-24.508v12.112h19.913v9.488h-19.913v12.498h25.351V177h-36.84v-54zm43.755 0H267v54h-11.488v-54z" fill="#fff"/>
</svg>
